X:306
T:
R:polska
S:Efter klockaren O. Laugren i Alva m. fl.
O:Gotland, Alva
M:3/4
L:1/16
K:D
d2dd A2AA F2FF|D2ED CA,B,C D4|B,2G2 G2F2 F2E2|E2d2 cdec d4|
B,2G2 G2F2 F2E2|E2d2 cdec d4|dcBA gfed dcBA|ABcA d4 D4:|
|:afdA F2F2 F2F2|F2a2 a2gf g4|gecA [A,E]2[A,E]2 [A,E]2[A,E]2|
[A,E]2g2 g2fe f4|dcBA gfed dcBA|ABcA d4 D4:|

